X:1
T:Title
%%score ( 1 2 ) ( 3 4 )
L:1/8
Q:1/4=85
M:4/4
K:Db
V:1 treble nm="Grand Piano, Soprano"
V:2 treble 
V:3 bass nm="Choir Pad, Jesus, Savior, Now Is Calling"
V:4 bass 
V:1
 [DF][EG] [FA]>[FA] [GB][FA] [FA]<[DF] | [DF]>[EG] [FA][Fd] [Ac][GB] [FA]2 | %2
w: By~J.~Bishop,~arranged~by~R.~E.~McNeill,~1901 * * * * * * *||
 [FA][FA] [GB]>[GB] G[GB][FA][DF] | [DF][DF] [CE]>[CA] [D=G]>[DB] [CA][_GA] | %4
w: ||
 [GA]>[GA] [Fd]4- [Fd]>[Fd] | [Ac]>[GB] [FA]4- [FA]>[FA] | [FA]>[FA] [Gc]4- [Gc]>[Gc] | %7
w: |||
 [GB]>[GA] [Fd]6 | [FA]>[FA] [Af]4- [Af]>[Ge] | [Fd]>[FA] [Ac]2 [GB]4 | %10
w: |||
 [GB]>[GB] [FA]4- [FA]>[Fd] | z2 d6 | z8 |] %13
w: |||
V:2
 x8 | x8 | x8 | x8 | x8 | x8 | x8 | x8 | x8 | x8 | x8 | [Fc]>[GA] F2 G>A F2- | F6 z2 |] %13
V:3
 [D,A,][D,A,] [D,D]>[D,D] [D,D][D,D] [D,D]<[D,A,] | [D,A,]>[D,A,] [D,D][D,D] [G,D][G,D] [D,D]2 | %2
 [D,D][D,D] [G,D]>[G,D] [G,B,][G,D][D,D][D,A,] | [D,A,][D,A,] [E,A,]>E, E,>E, .[A,,E,]2 | %4
 z2 z [D,A,] [D,A,]>[D,A,] .[D,A,]2 | z2 z [D,D] [D,D]>[D,D] .[D,D]2 | %6
 z2 z [A,,A,] [A,,A,]>[A,,A,] .[A,,A,]2 | z2 z [D,A,] [D,A,]>[D,A,] [D,A,]2 | %8
 z4 [D,D]>[D,D] [D,D]>[D,A,] | [D,A,]>[D,A,] [G,D]>[G,D] [G,D]>[G,D] [G,D]>[G,D] | %10
 [G,D]>[G,D] [A,D]2 [A,D]>[A,D] [A,D]>A, | z2 A,2 z4 | z8 |] %13
V:4
 x8 | x8 | x8 | x8 | x8 | x8 | x8 | x8 | x8 | x8 | x8 | [A,,A,]>[A,,A,] D,2- [D,B,-]/B,B,/ A,2- | %12
 A,6 z2 |] %13

